icons/svg/share1.svg

<svg viewBox="0 0 20 18" version="1.1" xmlns="http://www.w3.org/2000/svg" xmlns:xlink="http://www.w3.org/1999/xlink">
    <g stroke="none" stroke-width="1">
        <g transform="translate(-335.000000, -66.000000)">
            <g transform="translate(335.000000, 66.000000)">
                <path d="M18.9962898,5.99882835 C18.4463972,5.99882835 17.9964851,5.54891622 17.9964851,4.99902362 L17.9964851,3.41333334 L11.2208084,10.18901 C10.8318844,10.577934 10.1960086,10.577934 9.80708455,10.18901 C9.41816051,9.80008592 9.41816051,9.16421012 9.80708455,8.77528608 L16.5827612,1.99960946 L14.9970709,1.99960946 C14.4471783,1.99960946 13.9972662,1.54969733 13.9972662,0.999804728 C13.9972662,0.449912127 14.4471783,0 14.9970709,0 L18.9962898,0 L18.9972896,0 C19.128264,0 19.2592384,0.0269947276 19.3822144,0.0789845694 C19.4072095,0.0889826186 19.425206,0.109978524 19.4492013,0.122975975 C19.5391838,0.168966995 19.6291662,0.216957627 19.7041515,0.291942988 C19.7791369,0.36692833 19.8271275,0.456910756 19.8731185,0.546893181 C19.886116,0.570888506 19.9071119,0.587885185 19.9171099,0.613880105 C19.9690998,0.736856081 19.9960945,0.86783051 19.9960945,0.998804921 L19.9960945,0.999804728 L19.9960945,4.99902362 C19.9960945,5.54891622 19.5461824,5.99882835 18.9962898,5.99882835 Z M9.39816443,1.99960946 L4.59910174,1.99960946 C3.16538176,1.99960946 1.99960946,3.14638547 1.99960946,4.55511033 L1.99960946,13.4413747 C1.99960946,14.8510994 3.16538176,15.9968756 4.59910174,15.9968756 L15.3969928,15.9968756 C16.829713,15.9968756 17.9964851,14.8510994 17.9964851,13.4413747 L17.9964851,10.5539387 C17.9964851,10.0010467 18.4443976,9.55413395 18.9962898,9.55413395 C19.548182,9.55413395 19.9960945,10.0010467 19.9960945,10.5539387 L19.9960945,13.4413747 C19.9960945,15.953884 17.9324976,17.9964851 15.3969928,17.9964851 L4.59910174,17.9964851 C2.06259715,17.9964851 0,15.953884 0,13.4413747 L0,4.55511033 C0,2.04260105 2.06259715,0 4.59910174,0 L9.39816443,0 C9.95005663,0 10.3979691,0.447912513 10.3979691,0.999804728 C10.3979691,1.55169694 9.95005663,1.99960946 9.39816443,1.99960946 Z"></path>
            </g>
        </g>
    </g>
</svg>

<svg viewBox="0 0 20 18" xmlns="http://www.w3.org/2000/svg"><path d="M18.996 5.999c-.55 0-1-.45-1-1V3.413l-6.775 6.776a1.002 1.002 0 01-1.414 0 1.002 1.002 0 010-1.414L16.583 2h-1.586c-.55 0-1-.45-1-1s.45-1 1-1h4a.99.99 0 01.385.079c.025.01.043.031.067.044.09.046.18.094.255.169a.967.967 0 01.17.255c.012.024.033.04.043.067a.99.99 0 01.08.385v4c0 .55-.45 1-1 1zm-9.598-4H4.6C3.165 2 2 3.147 2 4.556v8.886c0 1.41 1.166 2.556 2.6 2.556h10.798c1.433 0 2.6-1.146 2.6-2.556v-2.887a1 1 0 112 0v2.887c0 2.513-2.065 4.555-4.6 4.555H4.599C2.063 17.996 0 15.954 0 13.441V4.555C0 2.043 2.063 0 4.6 0h4.798a1 1 0 010 2z"/></svg>
